images/50131765.svg

<?xml version="1.0" encoding="UTF-8"?>
<svg xmlns="http://www.w3.org/2000/svg" xmlns:xlink="http://www.w3.org/1999/xlink" width="300pt" height="300pt" viewBox="0 0 300 300" version="1.1">
<defs>
<g>
<symbol overflow="visible" id="glyph0-0">
<path style="stroke:none;" d="M 0.453125 1.59375 L 0.453125 -6.34375 L 4.953125 -6.34375 L 4.953125 1.59375 Z M 0.953125 1.09375 L 4.453125 1.09375 L 4.453125 -5.84375 L 0.953125 -5.84375 Z M 0.953125 1.09375 "/>
</symbol>
<symbol overflow="visible" id="glyph0-1">
<path style="stroke:none;" d="M 1.765625 -3.140625 L 1.765625 -0.734375 L 3.1875 -0.734375 C 3.664062 -0.734375 4.019531 -0.832031 4.25 -1.03125 C 4.476562 -1.226562 4.59375 -1.53125 4.59375 -1.9375 C 4.59375 -2.34375 4.476562 -2.644531 4.25 -2.84375 C 4.019531 -3.039062 3.664062 -3.140625 3.1875 -3.140625 Z M 1.765625 -5.828125 L 1.765625 -3.859375 L 3.078125 -3.859375 C 3.515625 -3.859375 3.835938 -3.9375 4.046875 -4.09375 C 4.265625 -4.257812 4.375 -4.507812 4.375 -4.84375 C 4.375 -5.175781 4.265625 -5.421875 4.046875 -5.578125 C 3.835938 -5.742188 3.515625 -5.828125 3.078125 -5.828125 Z M 0.890625 -6.5625 L 3.15625 -6.5625 C 3.832031 -6.5625 4.351562 -6.421875 4.71875 -6.140625 C 5.082031 -5.859375 5.265625 -5.457031 5.265625 -4.9375 C 5.265625 -4.539062 5.171875 -4.222656 4.984375 -3.984375 C 4.796875 -3.742188 4.519531 -3.59375 4.15625 -3.53125 C 4.59375 -3.4375 4.929688 -3.238281 5.171875 -2.9375 C 5.410156 -2.644531 5.53125 -2.28125 5.53125 -1.84375 C 5.53125 -1.25 5.332031 -0.789062 4.9375 -0.46875 C 4.539062 -0.15625 3.972656 0 3.234375 0 L 0.890625 0 Z M 0.890625 -6.5625 "/>
</symbol>
<symbol overflow="visible" id="glyph0-2">
<path style="stroke:none;" d="M 3.703125 -4.171875 C 3.609375 -4.222656 3.507812 -4.257812 3.40625 -4.28125 C 3.300781 -4.300781 3.179688 -4.3125 3.046875 -4.3125 C 2.585938 -4.3125 2.234375 -4.160156 1.984375 -3.859375 C 1.742188 -3.566406 1.625 -3.144531 1.625 -2.59375 L 1.625 0 L 0.8125 0 L 0.8125 -4.921875 L 1.625 -4.921875 L 1.625 -4.15625 C 1.800781 -4.457031 2.023438 -4.679688 2.296875 -4.828125 C 2.566406 -4.972656 2.894531 -5.046875 3.28125 -5.046875 C 3.34375 -5.046875 3.40625 -5.039062 3.46875 -5.03125 C 3.539062 -5.019531 3.617188 -5.007812 3.703125 -5 Z M 3.703125 -4.171875 "/>
</symbol>
<symbol overflow="visible" id="glyph0-3">
<path style="stroke:none;" d="M 0.890625 -6.5625 L 2.078125 -6.5625 L 4.984375 -1.078125 L 4.984375 -6.5625 L 5.84375 -6.5625 L 5.84375 0 L 4.65625 0 L 1.75 -5.484375 L 1.75 0 L 0.890625 0 Z M 0.890625 -6.5625 "/>
</symbol>
<symbol overflow="visible" id="glyph0-4">
<path style="stroke:none;" d="M 0.890625 -6.5625 L 1.765625 -6.5625 L 1.765625 -3.875 L 5 -3.875 L 5 -6.5625 L 5.890625 -6.5625 L 5.890625 0 L 5 0 L 5 -3.125 L 1.765625 -3.125 L 1.765625 0 L 0.890625 0 Z M 0.890625 -6.5625 "/>
</symbol>
<symbol overflow="visible" id="glyph0-5">
<path style="stroke:none;" d="M 5.796875 -6.0625 L 5.796875 -5.125 C 5.492188 -5.394531 5.171875 -5.597656 4.828125 -5.734375 C 4.492188 -5.878906 4.140625 -5.953125 3.765625 -5.953125 C 3.015625 -5.953125 2.4375 -5.722656 2.03125 -5.265625 C 1.632812 -4.804688 1.4375 -4.144531 1.4375 -3.28125 C 1.4375 -2.414062 1.632812 -1.753906 2.03125 -1.296875 C 2.4375 -0.835938 3.015625 -0.609375 3.765625 -0.609375 C 4.140625 -0.609375 4.492188 -0.675781 4.828125 -0.8125 C 5.171875 -0.945312 5.492188 -1.15625 5.796875 -1.4375 L 5.796875 -0.5 C 5.484375 -0.289062 5.15625 -0.132812 4.8125 -0.03125 C 4.46875 0.0703125 4.097656 0.125 3.703125 0.125 C 2.710938 0.125 1.929688 -0.175781 1.359375 -0.78125 C 0.785156 -1.394531 0.5 -2.226562 0.5 -3.28125 C 0.5 -4.332031 0.785156 -5.160156 1.359375 -5.765625 C 1.929688 -6.378906 2.710938 -6.6875 3.703125 -6.6875 C 4.097656 -6.6875 4.46875 -6.632812 4.8125 -6.53125 C 5.164062 -6.425781 5.492188 -6.269531 5.796875 -6.0625 Z M 5.796875 -6.0625 "/>
</symbol>
<symbol overflow="visible" id="glyph0-6">
<path style="stroke:none;" d="M 0.84375 -6.84375 L 1.65625 -6.84375 L 1.65625 0 L 0.84375 0 Z M 0.84375 -6.84375 "/>
</symbol>
</g>
</defs>
<g id="surface18781">
<rect x="0" y="0" width="300" height="300" style="fill:rgb(100%,100%,100%);fill-opacity:1;stroke:none;"/>
<path style="fill:none;stroke-width:1.2;stroke-linecap:butt;stroke-linejoin:miter;stroke:rgb(50%,30%,10%);stroke-opacity:1;stroke-miterlimit:10;" d="M 264.75 218.003906 L 253.78125 211.511719 "/>
<path style="fill:none;stroke-width:1.2;stroke-linecap:butt;stroke-linejoin:miter;stroke:rgb(0%,0%,0%);stroke-opacity:1;stroke-miterlimit:10;" d="M 253.78125 211.511719 L 242.816406 205.019531 "/>
<path style=" stroke:none;fill-rule:nonzero;fill:rgb(100%,100%,100%);fill-opacity:1;" d="M 259.75 212.503906 L 270.75 212.503906 L 270.75 223.503906 L 259.75 223.503906 Z M 259.75 212.503906 "/>
<g style="fill:rgb(50%,30%,10%);fill-opacity:1;">
  <use xlink:href="#glyph0-1" x="259.75" y="221.166992"/>
  <use xlink:href="#glyph0-2" x="266.149414" y="221.166992"/>
</g>
<path style="fill:none;stroke-width:1.2;stroke-linecap:butt;stroke-linejoin:miter;stroke:rgb(0%,0%,0%);stroke-opacity:1;stroke-miterlimit:10;" d="M 242.816406 205.019531 L 220.601562 217.523438 "/>
<path style="fill:none;stroke-width:1.2;stroke-linecap:butt;stroke-linejoin:miter;stroke:rgb(0%,0%,0%);stroke-opacity:1;stroke-miterlimit:10;" d="M 237.652344 201.042969 L 219.882812 211.042969 "/>
<path style="fill:none;stroke-width:1.2;stroke-linecap:butt;stroke-linejoin:miter;stroke:rgb(0%,0%,0%);stroke-opacity:1;stroke-miterlimit:10;" d="M 243.09375 179.527344 L 242.816406 205.019531 "/>
<path style="fill:none;stroke-width:1.2;stroke-linecap:butt;stroke-linejoin:miter;stroke:rgb(0%,0%,0%);stroke-opacity:1;stroke-miterlimit:10;" d="M 220.601562 217.523438 L 198.667969 204.535156 "/>
<path style="fill:none;stroke-width:1.2;stroke-linecap:butt;stroke-linejoin:miter;stroke:rgb(0%,0%,0%);stroke-opacity:1;stroke-miterlimit:10;" d="M 198.667969 204.535156 L 198.945312 179.046875 "/>
<path style="fill:none;stroke-width:1.2;stroke-linecap:butt;stroke-linejoin:miter;stroke:rgb(0%,0%,0%);stroke-opacity:1;stroke-miterlimit:10;" d="M 204.691406 202.050781 L 204.914062 181.660156 "/>
<path style="fill:none;stroke-width:1.2;stroke-linecap:butt;stroke-linejoin:miter;stroke:rgb(0%,0%,0%);stroke-opacity:1;stroke-miterlimit:10;" d="M 198.945312 179.046875 L 221.160156 166.542969 "/>
<path style="fill:none;stroke-width:1.2;stroke-linecap:butt;stroke-linejoin:miter;stroke:rgb(0%,0%,0%);stroke-opacity:1;stroke-miterlimit:10;" d="M 198.945312 179.046875 L 177.011719 166.0625 "/>
<path style="fill:none;stroke-width:1.2;stroke-linecap:butt;stroke-linejoin:miter;stroke:rgb(0%,0%,0%);stroke-opacity:1;stroke-miterlimit:10;" d="M 221.160156 166.542969 L 243.09375 179.527344 "/>
<path style="fill:none;stroke-width:1.2;stroke-linecap:butt;stroke-linejoin:miter;stroke:rgb(0%,0%,0%);stroke-opacity:1;stroke-miterlimit:10;" d="M 220.296875 173.003906 L 237.84375 183.390625 "/>
<path style="fill:none;stroke-width:1.2;stroke-linecap:butt;stroke-linejoin:miter;stroke:rgb(0%,0%,0%);stroke-opacity:1;stroke-miterlimit:10;" d="M 177.011719 166.0625 L 153.613281 176.175781 "/>
<path style="fill:none;stroke-width:1.2;stroke-linecap:butt;stroke-linejoin:miter;stroke:rgb(0%,0%,0%);stroke-opacity:1;stroke-miterlimit:10;" d="M 174.625 140.683594 L 177.011719 166.0625 "/>
<path style="fill:none;stroke-width:1.2;stroke-linecap:butt;stroke-linejoin:miter;stroke:rgb(0%,0%,0%);stroke-opacity:1;stroke-miterlimit:10;" d="M 168.890625 143.78125 L 170.800781 164.085938 "/>
<path style="fill:none;stroke-width:1.2;stroke-linecap:butt;stroke-linejoin:miter;stroke:rgb(0%,0%,0%);stroke-opacity:1;stroke-miterlimit:10;" d="M 153.613281 176.175781 L 136.761719 157.046875 "/>
<path style="fill:none;stroke-width:1.2;stroke-linecap:butt;stroke-linejoin:miter;stroke:rgb(0%,0%,0%);stroke-opacity:1;stroke-miterlimit:10;" d="M 156.429688 170.296875 L 142.949219 154.996094 "/>
<path style="fill:none;stroke-width:1.2;stroke-linecap:butt;stroke-linejoin:miter;stroke:rgb(0%,0%,0%);stroke-opacity:1;stroke-miterlimit:10;" d="M 136.761719 157.046875 L 143.257812 146.078125 "/>
<path style="fill:none;stroke-width:1.2;stroke-linecap:butt;stroke-linejoin:miter;stroke:rgb(0%,0%,100%);stroke-opacity:1;stroke-miterlimit:10;" d="M 143.257812 146.078125 L 149.75 135.109375 "/>
<path style="fill:none;stroke-width:1.2;stroke-linecap:butt;stroke-linejoin:miter;stroke:rgb(0%,0%,0%);stroke-opacity:1;stroke-miterlimit:10;" d="M 136.761719 157.046875 L 111.386719 159.433594 "/>
<path style="fill:none;stroke-width:1.2;stroke-linecap:butt;stroke-linejoin:miter;stroke:rgb(0%,0%,100%);stroke-opacity:1;stroke-miterlimit:10;" d="M 149.75 135.109375 L 162.1875 137.898438 "/>
<path style="fill:none;stroke-width:1.2;stroke-linecap:butt;stroke-linejoin:miter;stroke:rgb(0%,0%,0%);stroke-opacity:1;stroke-miterlimit:10;" d="M 162.1875 137.898438 L 174.625 140.683594 "/>
<path style=" stroke:none;fill-rule:nonzero;fill:rgb(100%,100%,100%);fill-opacity:1;" d="M 142.75 129.609375 L 156.75 129.609375 L 156.75 140.609375 L 142.75 140.609375 Z M 142.75 129.609375 "/>
<g style="fill:rgb(0%,0%,100%);fill-opacity:1;">
  <use xlink:href="#glyph0-3" x="142.75" y="138.272461"/>
  <use xlink:href="#glyph0-4" x="149.727539" y="138.272461"/>
</g>
<path style="fill:none;stroke-width:1.2;stroke-linecap:butt;stroke-linejoin:miter;stroke:rgb(0%,0%,0%);stroke-opacity:1;stroke-miterlimit:10;" d="M 174.625 140.683594 L 193.75 123.835938 "/>
<path style="fill:none;stroke-width:1.2;stroke-linecap:butt;stroke-linejoin:miter;stroke:rgb(0%,0%,0%);stroke-opacity:1;stroke-miterlimit:10;" d="M 193.75 123.835938 L 217.90625 131.976562 "/>
<path style="fill:none;stroke-width:1.2;stroke-linecap:butt;stroke-linejoin:miter;stroke:rgb(0%,0%,0%);stroke-opacity:1;stroke-miterlimit:10;" d="M 198.082031 118.964844 L 217.40625 125.476562 "/>
<path style="fill:none;stroke-width:1.2;stroke-linecap:butt;stroke-linejoin:miter;stroke:rgb(0%,0%,0%);stroke-opacity:1;stroke-miterlimit:10;" d="M 188.722656 98.84375 L 193.75 123.835938 "/>
<path style="fill:none;stroke-width:1.2;stroke-linecap:butt;stroke-linejoin:miter;stroke:rgb(0%,0%,0%);stroke-opacity:1;stroke-miterlimit:10;" d="M 217.90625 131.976562 L 237.035156 115.128906 "/>
<path style="fill:none;stroke-width:1.2;stroke-linecap:butt;stroke-linejoin:miter;stroke:rgb(0%,0%,0%);stroke-opacity:1;stroke-miterlimit:10;" d="M 237.035156 115.128906 L 234.523438 102.632812 "/>
<path style="fill:none;stroke-width:1.2;stroke-linecap:butt;stroke-linejoin:miter;stroke:rgb(0%,0%,100%);stroke-opacity:1;stroke-miterlimit:10;" d="M 234.523438 102.632812 L 232.007812 90.136719 "/>
<path style="fill:none;stroke-width:1.2;stroke-linecap:butt;stroke-linejoin:miter;stroke:rgb(0%,0%,0%);stroke-opacity:1;stroke-miterlimit:10;" d="M 230.652344 113.8125 L 228.640625 103.816406 "/>
<path style="fill:none;stroke-width:1.2;stroke-linecap:butt;stroke-linejoin:miter;stroke:rgb(0%,0%,100%);stroke-opacity:1;stroke-miterlimit:10;" d="M 228.640625 103.816406 L 226.628906 93.820312 "/>
<path style="fill:none;stroke-width:1.2;stroke-linecap:butt;stroke-linejoin:miter;stroke:rgb(0%,0%,100%);stroke-opacity:1;stroke-miterlimit:10;" d="M 232.007812 90.136719 L 219.929688 86.066406 "/>
<path style="fill:none;stroke-width:1.2;stroke-linecap:butt;stroke-linejoin:miter;stroke:rgb(0%,0%,0%);stroke-opacity:1;stroke-miterlimit:10;" d="M 219.929688 86.066406 L 207.851562 81.996094 "/>
<path style=" stroke:none;fill-rule:nonzero;fill:rgb(100%,100%,100%);fill-opacity:1;" d="M 229.007812 84.636719 L 236.007812 84.636719 L 236.007812 95.636719 L 229.007812 95.636719 Z M 229.007812 84.636719 "/>
<g style="fill:rgb(0%,0%,100%);fill-opacity:1;">
  <use xlink:href="#glyph0-3" x="229.007812" y="93.299805"/>
</g>
<path style="fill:none;stroke-width:1.2;stroke-linecap:butt;stroke-linejoin:miter;stroke:rgb(0%,0%,0%);stroke-opacity:1;stroke-miterlimit:10;" d="M 207.851562 81.996094 L 188.722656 98.84375 "/>
<path style="fill:none;stroke-width:1.2;stroke-linecap:butt;stroke-linejoin:miter;stroke:rgb(0%,0%,0%);stroke-opacity:1;stroke-miterlimit:10;" d="M 209.902344 88.183594 L 194.601562 101.660156 "/>
<path style="fill:none;stroke-width:1.2;stroke-linecap:butt;stroke-linejoin:miter;stroke:rgb(0%,0%,0%);stroke-opacity:1;stroke-miterlimit:10;" d="M 111.386719 159.433594 L 96.628906 138.648438 "/>
<path style="fill:none;stroke-width:1.2;stroke-linecap:butt;stroke-linejoin:miter;stroke:rgb(0%,0%,0%);stroke-opacity:1;stroke-miterlimit:10;" d="M 105.019531 160.828125 L 93.214844 144.199219 "/>
<path style="fill:none;stroke-width:1.2;stroke-linecap:butt;stroke-linejoin:miter;stroke:rgb(0%,0%,0%);stroke-opacity:1;stroke-miterlimit:10;" d="M 100.761719 182.605469 L 111.386719 159.433594 "/>
<path style="fill:none;stroke-width:1.2;stroke-linecap:butt;stroke-linejoin:miter;stroke:rgb(0%,0%,0%);stroke-opacity:1;stroke-miterlimit:10;" d="M 96.628906 138.648438 L 71.25 141.035156 "/>
<path style="fill:none;stroke-width:1.2;stroke-linecap:butt;stroke-linejoin:miter;stroke:rgb(0%,0%,0%);stroke-opacity:1;stroke-miterlimit:10;" d="M 71.25 141.035156 L 60.628906 164.207031 "/>
<path style="fill:none;stroke-width:1.2;stroke-linecap:butt;stroke-linejoin:miter;stroke:rgb(0%,0%,0%);stroke-opacity:1;stroke-miterlimit:10;" d="M 75.640625 145.851562 L 67.144531 164.390625 "/>
<path style="fill:none;stroke-width:1.2;stroke-linecap:butt;stroke-linejoin:miter;stroke:rgb(0%,0%,0%);stroke-opacity:1;stroke-miterlimit:10;" d="M 60.628906 164.207031 L 47.9375 165.402344 "/>
<path style="fill:none;stroke-width:1.2;stroke-linecap:butt;stroke-linejoin:miter;stroke:rgb(0%,80%,0%);stroke-opacity:1;stroke-miterlimit:10;" d="M 47.9375 165.402344 L 35.25 166.59375 "/>
<path style="fill:none;stroke-width:1.2;stroke-linecap:butt;stroke-linejoin:miter;stroke:rgb(0%,0%,0%);stroke-opacity:1;stroke-miterlimit:10;" d="M 60.628906 164.207031 L 75.386719 184.992188 "/>
<path style=" stroke:none;fill-rule:nonzero;fill:rgb(100%,100%,100%);fill-opacity:1;" d="M 25.25 161.09375 L 35.25 161.09375 L 35.25 172.09375 L 25.25 172.09375 Z M 25.25 161.09375 "/>
<g style="fill:rgb(0%,80%,0%);fill-opacity:1;">
  <use xlink:href="#glyph0-5" x="25.25" y="169.756836"/>
  <use xlink:href="#glyph0-6" x="31.763672" y="169.756836"/>
</g>
<path style="fill:none;stroke-width:1.2;stroke-linecap:butt;stroke-linejoin:miter;stroke:rgb(0%,0%,0%);stroke-opacity:1;stroke-miterlimit:10;" d="M 75.386719 184.992188 L 100.761719 182.605469 "/>
<path style="fill:none;stroke-width:1.2;stroke-linecap:butt;stroke-linejoin:miter;stroke:rgb(0%,0%,0%);stroke-opacity:1;stroke-miterlimit:10;" d="M 77.359375 178.78125 L 97.664062 176.871094 "/>
</g>
</svg>

<svg xmlns="http://www.w3.org/2000/svg" xmlns:xlink="http://www.w3.org/1999/xlink" width="300pt" height="300pt" viewBox="0 0 300 300"><defs><symbol overflow="visible"><path d="M.453 1.594v-7.938h4.5v7.938zm.5-.5h3.5v-6.938h-3.5zm0 0"/></symbol><symbol overflow="visible" id="a"><path d="M1.766-3.14v2.406h1.421c.477 0 .833-.098 1.063-.297.227-.197.344-.5.344-.907 0-.407-.117-.708-.344-.907-.23-.195-.586-.297-1.063-.297zm0-2.688v1.97h1.312c.438 0 .758-.08.97-.236.218-.164.327-.414.327-.75 0-.332-.11-.578-.328-.734-.21-.164-.53-.25-.97-.25zM.89-6.562h2.266c.676 0 1.196.14 1.563.42.362.283.546.685.546 1.205 0 .398-.094.714-.282.953-.187.242-.464.39-.828.453.438.092.774.292 1.016.592.238.293.36.657.36 1.094 0 .594-.2 1.055-.595 1.375-.398.314-.964.47-1.703.47H.89zm0 0"/></symbol><symbol overflow="visible" id="b"><path d="M3.703-4.172c-.094-.05-.195-.086-.297-.11-.105-.02-.226-.03-.36-.03-.46 0-.812.152-1.062.453-.242.294-.36.715-.36 1.266V0H.813v-4.922h.813v.766c.176-.3.398-.524.672-.672.27-.145.598-.22.984-.22.064 0 .126.01.19.017.07.01.147.022.233.03zm0 0"/></symbol><symbol overflow="visible" id="c"><path d="M.89-6.563H2.08l2.906 5.485v-5.484h.86V0H4.656L1.75-5.484V0H.89zm0 0"/></symbol><symbol overflow="visible" id="d"><path d="M.89-6.563h.876v2.688H5v-2.688h.89V0H5v-3.125H1.766V0H.89zm0 0"/></symbol><symbol overflow="visible" id="e"><path d="M5.797-6.063v.938c-.305-.27-.625-.473-.97-.61-.335-.144-.686-.218-1.06-.218-.75 0-1.33.23-1.736.687-.397.46-.592 1.12-.592 1.985 0 .866.195 1.526.593 1.983.408.46.986.688 1.736.688.375 0 .726-.066 1.062-.203.344-.132.664-.343.97-.625V-.5c-.314.21-.642.367-.986.47-.343.1-.714.155-1.11.155-.99 0-1.772-.3-2.343-.906C.784-1.396.5-2.228.5-3.28c0-1.052.285-1.88.86-2.486.57-.613 1.35-.92 2.343-.92.395-.002.766.053 1.11.155.35.104.68.26.984.468zm0 0"/></symbol><symbol overflow="visible" id="f"><path d="M.844-6.844h.812V0H.844zm0 0"/></symbol></defs><g><path fill="#fff" d="M0 0h300v300H0z"/><path d="M264.75 218.004l-10.97-6.492" stroke-width="1.2" stroke="#7f4d1a" stroke-miterlimit="10" fill="none"/><path d="M253.78 211.512l-10.964-6.492" stroke-width="1.2" stroke="#000" stroke-miterlimit="10" fill="none"/><path d="M259.75 212.504h11v11h-11zm0 0" fill="#fff"/><g fill="#7f4d1a"><use xlink:href="#a" x="259.75" y="221.167"/><use xlink:href="#b" x="266.149" y="221.167"/></g><path d="M242.816 205.02l-22.214 12.503M237.652 201.043l-17.77 10M243.094 179.527l-.278 25.493M220.602 217.523l-21.934-12.988M198.668 204.535l.277-25.488M204.69 202.05l.224-20.39M198.945 179.047l22.215-12.504M198.945 179.047l-21.933-12.984M221.16 166.543l21.934 12.984M220.297 173.004l17.547 10.387M177.012 166.063l-23.4 10.113M174.625 140.684l2.387 25.38M168.89 143.78l1.91 20.306M153.613 176.176l-16.85-19.13M156.43 170.297l-13.48-15.3M136.762 157.047l6.496-10.97" stroke-width="1.2" stroke="#000" stroke-miterlimit="10" fill="none"/><path d="M143.258 146.078l6.492-10.97" stroke-width="1.2" stroke="#00f" stroke-miterlimit="10" fill="none"/><path d="M136.762 157.047l-25.375 2.387" stroke-width="1.2" stroke="#000" stroke-miterlimit="10" fill="none"/><path d="M149.75 135.11l12.438 2.788" stroke-width="1.2" stroke="#00f" stroke-miterlimit="10" fill="none"/><path d="M162.188 137.898l12.437 2.786" stroke-width="1.2" stroke="#000" stroke-miterlimit="10" fill="none"/><path d="M142.75 129.61h14v11h-14zm0 0" fill="#fff"/><g fill="#00f"><use xlink:href="#c" x="142.75" y="138.272"/><use xlink:href="#d" x="149.728" y="138.272"/></g><path d="M174.625 140.684l19.125-16.848M193.75 123.836l24.156 8.14M198.082 118.965l19.324 6.512M188.723 98.844l5.027 24.992M217.906 131.977l19.13-16.848M237.035 115.13l-2.512-12.497" stroke-width="1.2" stroke="#000" stroke-miterlimit="10" fill="none"/><path d="M234.523 102.633l-2.515-12.496" stroke-width="1.2" stroke="#00f" stroke-miterlimit="10" fill="none"/><path d="M230.652 113.813l-2.01-9.997" stroke-width="1.2" stroke="#000" stroke-miterlimit="10" fill="none"/><path d="M228.64 103.816l-2.01-9.996M232.008 90.137l-12.078-4.07" stroke-width="1.2" stroke="#00f" stroke-miterlimit="10" fill="none"/><path d="M219.93 86.066l-12.078-4.07" stroke-width="1.2" stroke="#000" stroke-miterlimit="10" fill="none"/><path d="M229.008 84.637h7v11h-7zm0 0" fill="#fff"/><use xlink:href="#c" x="229.008" y="93.3" fill="#00f"/><path d="M207.852 81.996l-19.13 16.848M209.902 88.184l-15.3 13.476M111.387 159.434L96.63 138.648M105.02 160.828l-11.805-16.63M100.762 182.605l10.625-23.17M96.63 138.648l-25.38 2.387M71.25 141.035l-10.62 23.172M75.64 145.852l-8.495 18.54M60.63 164.207l-12.693 1.195" stroke-width="1.2" stroke="#000" stroke-miterlimit="10" fill="none"/><path d="M47.938 165.402l-12.688 1.192" stroke-width="1.2" stroke="#0c0" stroke-miterlimit="10" fill="none"/><path d="M60.63 164.207l14.757 20.785" stroke-width="1.2" stroke="#000" stroke-miterlimit="10" fill="none"/><path d="M25.25 161.094h10v11h-10zm0 0" fill="#fff"/><g fill="#0c0"><use xlink:href="#e" x="25.25" y="169.757"/><use xlink:href="#f" x="31.764" y="169.757"/></g><path d="M75.387 184.992l25.375-2.387M77.36 178.78l20.304-1.91" stroke-width="1.2" stroke="#000" stroke-miterlimit="10" fill="none"/></g></svg>
